src/pos-icons/battery-alert-variant.svg

<svg height="24" viewBox="0 0 24 24" width="24" xmlns="http://www.w3.org/2000/svg"><path d="m14.67 4h-1.67v-2h-6v2h-1.67c-.73 0-1.33.6-1.33 1.33v15.34c0 .73.6 1.33 1.33 1.33h9.34c.73 0 1.33-.6 1.33-1.33v-15.34c0-.73-.6-1.33-1.33-1.33m6.33 9h-2v-5h2zm0 4h-2v-2h2z"/></svg>

<?xml version="1.0" encoding="UTF-8"?><!DOCTYPE svg PUBLIC "-//W3C//DTD SVG 1.1//EN" "http://www.w3.org/Graphics/SVG/1.1/DTD/svg11.dtd"><svg xmlns="http://www.w3.org/2000/svg" xmlns:xlink="http://www.w3.org/1999/xlink" version="1.1" id="mdi-battery-alert-variant" width="24" height="24" viewBox="0 0 24 24"><path d="M14.67 4H13V2H7V4H5.33C4.6 4 4 4.6 4 5.33V20.67C4 21.4 4.6 22 5.33 22H14.67C15.4 22 16 21.4 16 20.67V5.33C16 4.6 15.4 4 14.67 4M21 13H19V8H21V13M21 17H19V15H21V17Z" /></svg>
